X:3
T:Chärna-Juiz  Bb
T:Remigi Blättler (19.12.1899-27.10.1975)
T:Dirigenten-Notiz, Edi Gasser
C:Unterwalden (CH)
%%partsbox
M:3/4
R:Naturjodel
L:1/8
K:Bb
[P:A] FF | f3B dF | B4FF | f3c eA | c3B AG | F3e ed | 
c3B AG | F3d dc | B4 FF | f3B dF | B4FF | 
f3c eA | c3B AG | F3e ed | c3e dc | (B6 | B4) ||
M:3/4
[P:B]  FF | d3f ed | c3e dc | B3d Ff | d3d cB | 
A3c Ff | e3e dc | B3d gd | f4FF | d3f ed | c3e dc | 
B3d Ff | d3d cB | A3c Ff | e3e dc | (B6 | B2)z2 || 
M:2/4
[P:C] FF | c>=B c>B | cd eA | B>d dg | f2 g/f/d/B/ | A>c cg | 
f2 g/f/e/c/ | B>d dg | f2FF | c>=B c>B | cd eA | 
B>d dg | f2 g/f/d/B/ | A>c cg | f2 g/f/e/c/ | (B4 | B2) |]
M:3/4
[P:D] F2 |: AB cF Ac | f3e dc | B3d BG | F3d cB | A3c AG | 
F3e dc | B3d BG | F4FF | AB cF Ac | f3e dc | B3d BG | 
F3d cB | A3c AG | F3e cd |1 (B6 | B4)F2 :|2 Bd fB df | B4z2 |] 
W:
W:Reihenfolge: A-B-C-D
W:
W:UJV-Naturjodelsammlung: Code-Nr: 02-02
W:http://www.naturjodler.ch/code 02.htm  (with AUDIO)
%April 27, 2018

